svg/fluentui-system-icons/ic_fluent_convert_range_24_regular.svg

<svg width="24" height="24" viewBox="0 0 24 24" fill="none" xmlns="http://www.w3.org/2000/svg">
<path d="M6.25 3C5.00736 3 4 4.00736 4 5.25V7.75C4 8.99264 5.00736 10 6.25 10H15.75C16.9926 10 18 8.99264 18 7.75V5.25C18 4.00736 16.9926 3 15.75 3H6.25ZM5.5 5.25C5.5 4.83579 5.83579 4.5 6.25 4.5H15.75C16.1642 4.5 16.5 4.83579 16.5 5.25V7.75C16.5 8.16421 16.1642 8.5 15.75 8.5H6.25C5.83579 8.5 5.5 8.16421 5.5 7.75V5.25ZM8.7 16C8.3134 16 8 16.3358 8 16.75C8 17.1642 8.3134 17.5 8.7 17.5H13.3C13.6866 17.5 14 17.1642 14 16.75C14 16.3358 13.6866 16 13.3 16H8.7ZM17.3529 16.4453L17.2803 16.5294C17.0141 16.7957 16.5974 16.8199 16.3038 16.602L16.2197 16.5294L14.2197 14.5294C13.9534 14.2632 13.9292 13.8465 14.1471 13.5529L14.2197 13.4688L16.2197 11.4688C16.5126 11.1759 16.9874 11.1759 17.2803 11.4688C17.5466 11.735 17.5708 12.1517 17.3529 12.4453L17.2803 12.5294L16.5612 13.2503L18.0607 13.2498C18.7079 13.2498 19.2402 12.7579 19.3042 12.1276L19.3107 11.9998V9.74976C19.3107 9.33554 19.6464 8.99976 20.0607 8.99976C20.4404 8.99976 20.7542 9.28191 20.8038 9.64799L20.8107 9.74976V11.9998C20.8107 13.4623 19.669 14.6582 18.2282 14.7447L18.0607 14.7498L16.5622 14.7503L17.2803 15.4688C17.5466 15.735 17.5708 16.1517 17.3529 16.4453ZM18 19.25V17.2239L17.9874 17.2365C17.5816 17.6423 17.027 17.8069 16.5 17.7311V19.25C16.5 19.6642 16.1642 20 15.75 20H6.25C5.83579 20 5.5 19.6642 5.5 19.25V14.25C5.5 13.8358 5.83579 13.5 6.25 13.5H13.0725C13.1295 13.3082 13.2199 13.1241 13.3439 12.957L13.3659 12.9274L13.4866 12.7876L14.2742 12H6.25C5.00736 12 4 13.0074 4 14.25V19.25C4 20.4926 5.00736 21.5 6.25 21.5H15.75C16.9926 21.5 18 20.4926 18 19.25Z" fill="#212121"/>
</svg>

<svg xmlns="http://www.w3.org/2000/svg" width="24" height="24"><path d="M6.25 3A2.25 2.25 0 0 0 4 5.25v2.5A2.25 2.25 0 0 0 6.25 10h9.5A2.25 2.25 0 0 0 18 7.75v-2.5A2.25 2.25 0 0 0 15.75 3h-9.5ZM5.5 5.25a.75.75 0 0 1 .75-.75h9.5a.75.75 0 0 1 .75.75v2.5a.75.75 0 0 1-.75.75h-9.5a.75.75 0 0 1-.75-.75v-2.5ZM8.7 16c-.387 0-.7.336-.7.75s.313.75.7.75h4.6c.387 0 .7-.336.7-.75s-.313-.75-.7-.75H8.7Zm8.653.445-.073.084a.75.75 0 0 1-.976.073l-.084-.073-2-2a.75.75 0 0 1-.073-.976l.073-.084 2-2a.75.75 0 0 1 1.133.976l-.073.084-.719.721h1.5a1.25 1.25 0 0 0 1.243-1.122l.007-.128V9.75a.75.75 0 0 1 1.493-.102l.007.102V12a2.75 2.75 0 0 1-2.583 2.745l-.167.005h-1.499l.718.719a.75.75 0 0 1 .073.976ZM18 19.25v-2.026l-.013.012c-.405.406-.96.57-1.487.495v1.519a.75.75 0 0 1-.75.75h-9.5a.75.75 0 0 1-.75-.75v-5a.75.75 0 0 1 .75-.75h6.822c.058-.192.148-.376.272-.543l.022-.03.12-.14.788-.787H6.25A2.25 2.25 0 0 0 4 14.25v5a2.25 2.25 0 0 0 2.25 2.25h9.5A2.25 2.25 0 0 0 18 19.25Z"/></svg>
